**harm	**harte	**kern	**silbe	**kern	**silbe	**rhyme	**timestamp	**phrase	**leadinstrument
*M4/4	*M4/4	*ICvox	*	*ICvox	*	*	*	*	*
*	*	*VRlead	*	*VRharmonize,*VRbacking	*	*	*	*	*
*	*	*Hstimme	*	*Nstimme	*	*	*	*	*
*B-:	*B-:	*B-:	*	*B-:	*	*	*	*	*
*	*	*M4/4	*	*M4/4	*	*	*	*	*
*	*	*clefF4	*	*clefF4	*	*	*	*	*
1r;	N	r;	.	1r	.	.	0	.	r
1r;	N	r;	.	1r	.	.	0.464	.	r
=1	=1	=1	=1	=1	=1	=1	=1	=1	=1
1V7	F:7	1r	.	1r	.	.	1.74	.	r
=2	=2	=2	=2	=2	=2	=2	=2	=2	=2
1V7	F:7	1r	.	1r	.	.	3.015	.	r
=3	=3	=3	=3	=3	=3	=3	=3	=3	=3
1I	B-:maj	1r	.	1r	.	.	4.29	.	r
=4	=4	=4	=4	=4	=4	=4	=4	=4	=4
1I	B-:maj	1r	.	1r	.	.	5.566	.	r
=5	=5	=5	=5	=5	=5	=5	=5	=5	=5
*>Letter>A	*>Letter>A	*>Letter>A	*>Letter>A	*>Letter>A	*>Letter>A	*>Letter>A	*>Letter>A	*>Letter>A	*>Letter>A
*>Label>Verse	*>Label>Verse	*>Label>Verse	*>Label>Verse	*>Label>Verse	*>Label>Verse	*>Label>Verse	*>Label>Verse	*>Label>Verse	*>Label>Verse
1I	B-:maj	4D	You've	1r	.	.	6.841	newline	voice
.	.	8D	cut	.	.	.	.	.	.
.	.	[8D	out	.	.	.	.	.	.
.	.	4D]	_	.	.	.	.	.	.
.	.	8C	your	.	.	.	.	.	.
.	.	[8C	dan	.	.	.	.	.	.
=6	=6	=6	=6	=6	=6	=6	=6	=6	=6
1I	B-:maj	8C]	_	1r	.	.	8.161	.	voice
.	.	8BB-	cing,	.	.	.	.	.	.
.	.	4r	.	.	.	.	.	.	.
.	.	8r	.	.	.	.	.	.	.
.	.	[8D	and	.	.	.	.	.	.
.	.	8D]	_	.	.	.	.	.	.
.	.	8D	you	.	.	.	.	.	.
=7	=7	=7	=7	=7	=7	=7	=7	=7	=7
1V7	F:7	8E-	ne-	1r	.	.	9.481	.	voice
.	.	[8E-	-ver	.	.	.	.	.	.
.	.	4E-]	_	.	.	.	.	.	.
.	.	8E-	see	.	.	.	.	.	.
.	.	[8D	a	.	.	.	.	.	.
.	.	8D]	_	.	.	.	.	.	.
.	.	[8C	show	.	.	A	.	.	.
=8	=8	=8	=8	=8	=8	=8	=8	=8	=8
1V7	F:7	8C]	_	1r	.	.	10.801	.	voice
.	.	8r	.	.	.	.	.	.	.
.	.	4r	.	.	.	.	.	.	.
.	.	4r	.	.	.	.	.	.	.
.	.	8D	Your	.	.	.	.	.	.
.	.	[8E-	friends	.	.	.	.	.	.
=9	=9	=9	=9	=9	=9	=9	=9	=9	=9
1V7	F:7	4E-]	_	1r	.	.	12.12	newline	voice
.	.	4E-	come	.	.	.	.	.	.
.	.	4.E-	by	.	.	.	.	.	.
.	.	8D	to	.	.	.	.	.	.
=10	=10	=10	=10	=10	=10	=10	=10	=10	=10
1V7	F:7	4D	pick	1r	.	.	13.426	.	voice
.	.	8C	you	.	.	.	.	.	.
.	.	[8C	up,	.	.	.	.	.	.
.	.	8C]	_	.	.	.	.	.	.
.	.	[8D	and	.	.	.	.	.	.
.	.	8D]	_	.	.	.	.	.	.
.	.	8E-	you	.	.	.	.	.	.
=11	=11	=11	=11	=11	=11	=11	=11	=11	=11
1I	B-:maj	[4F	hard	1r	.	.	14.733	.	voice
.	.	8F]	_	.	.	.	.	.	.
.	.	8G	ly	.	.	.	.	.	.
.	.	8F	e-	.	.	.	.	.	.
.	.	[8E-	-ver	.	.	.	.	.	.
.	.	8E-]	_	.	.	.	.	.	.
.	.	[8D	go	.	.	A	.	.	.
=12	=12	=12	=12	=12	=12	=12	=12	=12	=12
1I	B-:maj	4D]	_	1r	.	.	16.039	.	voice
.	.	4r	.	.	.	.	.	.	.
.	.	4r	.	.	.	.	.	.	.
.	.	8F	It	.	.	.	.	.	.
.	.	[8G	seems	.	.	.	.	.	.
=13	=13	=13	=13	=13	=13	=13	=13	=13	=13
1IV	E-:maj	4G]	_	1r	.	.	17.345	newline	voice
.	.	4F#	your	.	.	.	.	.	.
.	.	4G	head	.	.	.	.	.	.
.	.	8A	is	.	.	.	.	.	.
.	.	[8B-	in	.	.	.	.	.	.
=14	=14	=14	=14	=14	=14	=14	=14	=14	=14
1IV	E-:maj	4B-]	_	1r	.	.	18.665	.	voice
.	.	8B-	the	.	.	.	.	.	.
.	.	[8A	clouds	.	.	.	.	.	.
.	.	4A]	_	.	.	.	.	.	.
.	.	8G	a-	.	.	.	.	.	.
.	.	[8F	-bove	.	.	B	.	.	.
=15	=15	=15	=15	=15	=15	=15	=15	=15	=15
1I	B-:maj	2.F]	.	1r	.	.	19.986	.	voice
.	.	4r	.	.	.	.	.	.	.
=16	=16	=16	=16	=16	=16	=16	=16	=16	=16
1I	B-:maj	4r	.	1r	.	.	21.306	.	voice
.	.	4AA	you've	.	.	.	.	.	.
.	.	4BB-	got	.	.	.	.	.	.
.	.	8C	the	.	.	.	.	.	.
.	.	[8D	ways	.	.	.	.	.	.
=17	=17	=17	=17	=17	=17	=17	=17	=17	=17
1I	B-:maj	2.D_	_	4r	.	.	22.627	newline	voice
.	.	.	.	4BB-	(you've	.	.	.	.
.	.	.	.	4AA	got	.	.	.	.
.	.	8D]	_	4GG	the	.	.	.	.
.	.	8r	.	.	.	.	.	.	.
=18	=18	=18	=18	=18	=18	=18	=18	=18	=18
1V7	F:7	4r	.	2FF	ways)	.	23.955	.	voice
.	.	8FF	of	.	.	.	.	.	.
.	.	8FF	a	.	.	.	.	.	.
.	.	8AA	wo-	2r	.	.	.	.	.
.	.	8AA	-man	.	.	.	.	.	.
.	.	4C	in	.	.	.	.	.	.
=19	=19	=19	=19	=19	=19	=19	=19	=19	=19
1I	B-:maj	2BB-	love.	2r	.	B	25.282	.	voice
.	.	2r	.	2BB-	(In	.	.	.	.
=20	=20	=20	=20	=20	=20	=20	=20	=20	=20
1I	B-:maj	1r	.	2BB-	love...)	.	26.61	.	voice
.	.	.	.	2r	.	.	.	.	.
=21	=21	=21	=21	=21	=21	=21	=21	=21	=21
*>Letter>A	*>Letter>A	*>Letter>A	*>Letter>A	*>Letter>A	*>Letter>A	*>Letter>A	*>Letter>A	*>Letter>A	*>Letter>A
*>Label>Verse	*>Label>Verse	*>Label>Verse	*>Label>Verse	*>Label>Verse	*>Label>Verse	*>Label>Verse	*>Label>Verse	*>Label>Verse	*>Label>Verse
1I	B-:maj	8D	I	1r	.	.	27.938	newline	voice
.	.	[8D	walked	.	.	.	.	.	.
.	.	4D]	_	.	.	.	.	.	.
.	.	4D	by	.	.	.	.	.	.
.	.	8C	your	.	.	.	.	.	.
.	.	[8C	house	.	.	.	.	.	.
=22	=22	=22	=22	=22	=22	=22	=22	=22	=22
1I	B-:maj	4C]	_	1r	.	.	29.266	.	voice
.	.	8BB-	to-	.	.	.	.	.	.
.	.	[8BB-	-night	.	.	C	.	.	.
.	.	8BB-]	_	.	.	.	.	.	.
.	.	4.D	and	.	.	.	.	.	.
=23	=23	=23	=23	=23	=23	=23	=23	=23	=23
1V7	F:7	4E-	hoped	1r	.	.	30.594	.	voice
.	.	8E-	that	.	.	.	.	.	.
.	.	[8E-	I	.	.	.	.	.	.
.	.	4E-]	_	.	.	.	.	.	.
.	.	8D	might	.	.	C	.	.	.
.	.	[8C	see	.	.	D	.	.	.
=24	=24	=24	=24	=24	=24	=24	=24	=24	=24
1V7	F:7	4C]	.	1r	.	.	31.922	.	voice
.	.	4r	.	.	.	.	.	.	.
.	.	4r	.	.	.	.	.	.	.
.	.	8D	the	.	.	.	.	.	.
.	.	[8E-	guy	.	.	.	.	.	.
=25	=25	=25	=25	=25	=25	=25	=25	=25	=25
1V7	F:7	4E-]	_	1r	.	.	33.25	newline	voice
.	.	4E-	who's	.	.	.	.	.	.
.	.	8E-	got	.	.	.	.	.	.
.	.	[8D	you	.	.	.	.	.	.
.	.	8D]	_	.	.	.	.	.	.
.	.	[8D	in	.	.	E	.	.	.
=26	=26	=26	=26	=26	=26	=26	=26	=26	=26
1V7	F:7	4D]	_	1r	.	.	34.568	.	voice
.	.	4C	a	.	.	.	.	.	.
.	.	4C	spin,	.	.	E	.	.	.
.	.	8E-	I	.	.	.	.	.	.
.	.	[8F	wish	.	.	.	.	.	.
=27	=27	=27	=27	=27	=27	=27	=27	=27	=27
1I	B-:maj	4F]	_	1r	.	.	35.887	.	voice
.	.	4F	that	.	.	.	.	.	.
.	.	4F	guy	.	.	.	.	.	.
.	.	4E-	was	.	.	.	.	.	.
=28	=28	=28	=28	=28	=28	=28	=28	=28	=28
1I	B-:maj	4D	me!	1r	.	D	37.205	.	voice
.	.	4r	.	.	.	.	.	.	.
.	.	4r	.	.	.	.	.	.	.
.	.	8F	I	.	.	.	.	.	.
.	.	[8G	don't	.	.	.	.	.	.
=29	=29	=29	=29	=29	=29	=29	=29	=29	=29
1IV	E-:maj	4G]	_	1r	.	.	38.523	newline	voice
.	.	4G	know	.	.	.	.	.	.
.	.	4G	why	.	.	.	.	.	.
.	.	8G	it's	.	.	.	.	.	.
.	.	[8G	you	.	.	.	.	.	.
=30	=30	=30	=30	=30	=30	=30	=30	=30	=30
1IV	E-:maj	8G]	_	1r	.	.	39.855	.	voice
.	.	[8G	I'm	.	.	.	.	.	.
.	.	4G]	_	.	.	.	.	.	.
.	.	4F	drea-	.	.	.	.	.	.
.	.	8E-	-ming	.	.	.	.	.	.
.	.	[8F	of	.	.	B	.	.	.
=31	=31	=31	=31	=31	=31	=31	=31	=31	=31
1I	B-:maj	2.F]	.	1r	.	.	41.188	.	voice
.	.	4r	.	.	.	.	.	.	.
=32	=32	=32	=32	=32	=32	=32	=32	=32	=32
1I	B-:maj	4r	.	1r	.	.	42.52	.	voice
.	.	4AA	you've	.	.	.	.	.	.
.	.	4BB-	got	.	.	.	.	.	.
.	.	8C	the	.	.	.	.	.	.
.	.	8D	ways	.	.	.	.	.	.
=33	=33	=33	=33	=33	=33	=33	=33	=33	=33
1I	B-:maj	[2.D	_	4r	.	.	43.852	newline	voice
.	.	.	.	4BB-	(you've	.	.	.	.
.	.	.	.	4AA	got	.	.	.	.
.	.	8D]	_	4GG	the	.	.	.	.
.	.	8r	.	.	.	.	.	.	.
=34	=34	=34	=34	=34	=34	=34	=34	=34	=34
1V7	F:7	4r	.	2FF	ways)	.	45.171	.	voice
.	.	8FF	of	.	.	.	.	.	.
.	.	8FF	a	.	.	.	.	.	.
.	.	8AA	wo-	2r	.	.	.	.	.
.	.	8AA	-man	.	.	.	.	.	.
.	.	4C	in	.	.	.	.	.	.
=35	=35	=35	=35	=35	=35	=35	=35	=35	=35
1I	B-:maj	2BB-	love.	2r	.	B	46.49	.	voice
.	.	2r	.	2BB-	(In	.	.	.	.
=36	=36	=36	=36	=36	=36	=36	=36	=36	=36
1I	B-:maj	1r	.	2BB-	love...)	.	47.808	.	voice
.	.	.	.	2r	.	.	.	.	.
=37	=37	=37	=37	=37	=37	=37	=37	=37	=37
*>Letter>B	*>Letter>B	*>Letter>B	*>Letter>B	*>Letter>B	*>Letter>B	*>Letter>B	*>Letter>B	*>Letter>B	*>Letter>B
*>Label>Bridge	*>Label>Bridge	*>Label>Bridge	*>Label>Bridge	*>Label>Bridge	*>Label>Bridge	*>Label>Bridge	*>Label>Bridge	*>Label>Bridge	*>Label>Bridge
1IV	E-:maj	8G	Ma-	1r	.	.	49.127	newline	voice
.	.	[8G	-ny	.	.	.	.	.	.
.	.	4G]	_	.	.	.	.	.	.
.	.	4G	is	.	.	.	.	.	.
.	.	8A	the	.	.	.	.	.	.
.	.	[8B-	night	.	.	C	.	.	.
=38	=38	=38	=38	=38	=38	=38	=38	=38	=38
1IV	E-:maj	2B-_	_	1r	.	.	50.438	.	voice
.	.	8B-]	_	.	.	.	.	.	.
.	.	[8G	I've	.	.	.	.	.	.
.	.	4G]	_	.	.	.	.	.	.
=39	=39	=39	=39	=39	=39	=39	=39	=39	=39
1I	B-:maj	4F	stayed	1r	.	.	51.748	.	voice
.	.	8F	a-	.	.	.	.	.	.
.	.	[8F	-wake	.	.	.	.	.	.
.	.	8F]	_	.	.	.	.	.	.
.	.	[8D	and	.	.	.	.	.	.
.	.	4D]	_	.	.	.	.	.	.
=40	=40	=40	=40	=40	=40	=40	=40	=40	=40
1I	B-:maj	[4F	cried	1r	.	C	53.059	.	voice
.	.	8F]	.	.	.	.	.	.	.
.	.	8r	.	.	.	.	.	.	.
.	.	2r	.	.	.	.	.	.	.
=41	=41	=41	=41	=41	=41	=41	=41	=41	=41
1IV	E-:maj	4G	Now	1r	.	.	54.369	newline	voice
.	.	4G	you'll	.	.	.	.	.	.
.	.	8G	ne-	.	.	.	.	.	.
.	.	[8A	-ver	.	.	.	.	.	.
.	.	8A]	_	.	.	.	.	.	.
.	.	[8B-	know	.	.	.	.	.	.
=42	=42	=42	=42	=42	=42	=42	=42	=42	=42
1IV	E-:maj	8B-]	_	1r	.	.	55.692	.	voice
.	.	[8B-	how	.	.	.	.	.	.
.	.	8B-]	_	.	.	.	.	.	.
.	.	[8A	much	.	.	.	.	.	.
.	.	8A]	_	.	.	.	.	.	.
.	.	[8G	you	.	.	.	.	.	.
.	.	8G]	_	.	.	.	.	.	.
.	.	[8F	hurt	.	.	.	.	.	.
=43	=43	=43	=43	=43	=43	=43	=43	=43	=43
1I	B-:maj	4F]	_	1r	.	.	57.015	.	voice
.	.	4F	my	.	.	.	.	.	.
.	.	4E-	foo-	.	.	.	.	.	.
.	.	4D	-lish	.	.	.	.	.	.
=44	=44	=44	=44	=44	=44	=44	=44	=44	=44
1V7	F:7	2.C	pride...	1r	.	C	58.337	.	voice
.	.	4r	.	.	.	.	.	.	.
=45	=45	=45	=45	=45	=45	=45	=45	=45	=45
1V7	F:7	1r	.	1r	.	.	59.66	.	voice
=46	=46	=46	=46	=46	=46	=46	=46	=46	=46
*>Letter>A	*>Letter>A	*>Letter>A	*>Letter>A	*>Letter>A	*>Letter>A	*>Letter>A	*>Letter>A	*>Letter>A	*>Letter>A
*>Label>Verse	*>Label>Verse	*>Label>Verse	*>Label>Verse	*>Label>Verse	*>Label>Verse	*>Label>Verse	*>Label>Verse	*>Label>Verse	*>Label>Verse
1I	B-:maj	4D	I	1r	.	.	60.982	newline	voice
.	.	8D	re-	.	.	.	.	.	.
.	.	[8D	-call	.	.	.	.	.	.
.	.	4D]	_	.	.	.	.	.	.
.	.	4C	your	.	.	.	.	.	.
=47	=47	=47	=47	=47	=47	=47	=47	=47	=47
1I	B-:maj	8C	kis-	1r	.	.	62.311	.	voice
.	.	[8BB-	-ses,	.	.	.	.	.	.
.	.	4BB-]	_	.	.	.	.	.	.
.	.	4r	.	.	.	.	.	.	.
.	.	8D	the	.	.	.	.	.	.
.	.	[8E-	times	.	.	.	.	.	.
=48	=48	=48	=48	=48	=48	=48	=48	=48	=48
1V7	F:7	4E-]	_	1r	.	.	63.64	.	voice
.	.	4E-	I	.	.	.	.	.	.
.	.	4E-	held	.	.	.	.	.	.
.	.	8D	you	.	.	.	.	.	.
.	.	[8C	tight,	.	.	C	.	.	.
=49	=49	=49	=49	=49	=49	=49	=49	=49	=49
1V7	F:7	4C]	_	1r	.	.	64.97	.	voice
.	.	4r	.	.	.	.	.	.	.
.	.	4r	.	.	.	.	.	.	.
.	.	4D	now	.	.	.	.	.	.
=50	=50	=50	=50	=50	=50	=50	=50	=50	=50
1V7	F:7	8E-	when	1r	.	.	66.299	newline	voice
.	.	[8E-	I	.	.	.	.	.	.
.	.	4E-]	_	.	.	.	.	.	.
.	.	4.E-	come	.	.	.	.	.	.
.	.	8D	to	.	.	.	.	.	.
=51	=51	=51	=51	=51	=51	=51	=51	=51	=51
1V7	F:7	8D	see	1r	.	.	67.617	.	voice
.	.	[8C	you,	.	.	.	.	.	.
.	.	4C]	_	.	.	.	.	.	.
.	.	4r	.	.	.	.	.	.	.
.	.	4E-	you're	.	.	.	.	.	.
=52	=52	=52	=52	=52	=52	=52	=52	=52	=52
1I	B-:maj	8F	sit-	1r	.	.	68.935	.	voice
.	.	[8F	-ting	.	.	.	.	.	.
.	.	8F]	_	.	.	.	.	.	.
.	.	[8F	in	.	.	.	.	.	.
.	.	4F]	_	.	.	.	.	.	.
.	.	8E-	the	.	.	.	.	.	.
.	.	[8D	light	.	.	C	.	.	.
=53	=53	=53	=53	=53	=53	=53	=53	=53	=53
1I	B-:maj	4D]	_	1r	.	.	70.253	.	voice
.	.	4r	.	.	.	.	.	.	.
.	.	2r	.	.	.	.	.	.	.
=54	=54	=54	=54	=54	=54	=54	=54	=54	=54
1IV	E-:maj	8G	Mis-	1r	.	.	71.571	newline	voice
.	.	[8G	-sing	.	.	.	.	.	.
.	.	8G]	_	.	.	.	.	.	.
.	.	[8G	all	.	.	.	.	.	.
.	.	4G]	_	.	.	.	.	.	.
.	.	8G	the	.	.	.	.	.	.
.	.	[8G	things	.	.	.	.	.	.
=55	=55	=55	=55	=55	=55	=55	=55	=55	=55
1IV	E-:maj	4G]	_	1r	.	.	72.895	.	voice
.	.	8G	that	.	.	.	.	.	.
.	.	[8F	we	.	.	.	.	.	.
.	.	4F]	_	.	.	.	.	.	.
.	.	4E-	dreamed	.	.	.	.	.	.
=56	=56	=56	=56	=56	=56	=56	=56	=56	=56
1I	B-:maj	1F	of...	1r	.	B	74.218	.	voice
=57	=57	=57	=57	=57	=57	=57	=57	=57	=57
1I	B-:maj	4r	.	1r	.	.	75.541	.	voice
.	.	4AA	you've	.	.	.	.	.	.
.	.	4BB-	got	.	.	.	.	.	.
.	.	8C	the	.	.	.	.	.	.
.	.	8D	ways	.	.	.	.	.	.
=58	=58	=58	=58	=58	=58	=58	=58	=58	=58
1I	B-:maj	[2.D	_	4r	.	.	76.865	newline	voice
.	.	.	.	4BB-	(you've	.	.	.	.
.	.	.	.	4AA	got	.	.	.	.
.	.	8D]	_	4GG	the	.	.	.	.
.	.	8r	.	.	.	.	.	.	.
=59	=59	=59	=59	=59	=59	=59	=59	=59	=59
1V7	F:7	4r	.	2FF	ways)	.	78.191	.	voice
.	.	8FF	of	.	.	.	.	.	.
.	.	8FF	a	.	.	.	.	.	.
.	.	8AA	wo-	2r	.	.	.	.	.
.	.	8AA	-man	.	.	.	.	.	.
.	.	4C	in	.	.	.	.	.	.
=60	=60	=60	=60	=60	=60	=60	=60	=60	=60
1I	B-:maj	2BB-	love.	2r	.	B	79.517	.	voice
.	.	2r	.	2BB-	(In	.	.	.	.
=61	=61	=61	=61	=61	=61	=61	=61	=61	=61
1I	B-:maj	1r	.	2BB-	love...)	.	80.844	.	voice
.	.	.	.	2r	.	.	.	.	.
=62	=62	=62	=62	=62	=62	=62	=62	=62	=62
*>Letter>A2	*>Letter>A2	*>Letter>A2	*>Letter>A2	*>Letter>A2	*>Letter>A2	*>Letter>A2	*>Letter>A2	*>Letter>A2	*>Letter>A2
*>Label>Solo	*>Label>Solo	*>Label>Solo	*>Label>Solo	*>Label>Solo	*>Label>Solo	*>Label>Solo	*>Label>Solo	*>Label>Solo	*>Label>Solo
1IV	E-:maj	1r	.	1r	.	.	82.17	newline	piano
=63	=63	=63	=63	=63	=63	=63	=63	=63	=63
1IV	E-:maj	1r	.	1r	.	.	83.479	.	piano
=64	=64	=64	=64	=64	=64	=64	=64	=64	=64
1I	B-:maj	1r	.	1r	.	.	84.787	.	piano
=65	=65	=65	=65	=65	=65	=65	=65	=65	=65
1I	B-:maj	1r	.	1r	.	.	86.096	.	piano
=66	=66	=66	=66	=66	=66	=66	=66	=66	=66
1I	B-:maj	1r	.	1r	.	.	87.405	newline	piano
=67	=67	=67	=67	=67	=67	=67	=67	=67	=67
1V7	F:7	1r	.	1r	.	.	88.726	.	piano
=68	=68	=68	=68	=68	=68	=68	=68	=68	=68
1I	B-:maj	1r	.	1r	.	.	90.048	.	piano
=69	=69	=69	=69	=69	=69	=69	=69	=69	=69
1I	B-:maj	1r	.	1r	.	.	91.369	.	piano
=70	=70	=70	=70	=70	=70	=70	=70	=70	=70
*>Letter>B	*>Letter>B	*>Letter>B	*>Letter>B	*>Letter>B	*>Letter>B	*>Letter>B	*>Letter>B	*>Letter>B	*>Letter>B
*>Label>Bridge	*>Label>Bridge	*>Label>Bridge	*>Label>Bridge	*>Label>Bridge	*>Label>Bridge	*>Label>Bridge	*>Label>Bridge	*>Label>Bridge	*>Label>Bridge
1IV	E-:maj	8G	Ma-	1r	.	.	92.691	newline	voice
.	.	[8G	-ny	.	.	.	.	.	.
.	.	4G]	_	.	.	.	.	.	.
.	.	4G	is	.	.	.	.	.	.
.	.	8A	the	.	.	.	.	.	.
.	.	[8B-	night	.	.	C	.	.	.
=71	=71	=71	=71	=71	=71	=71	=71	=71	=71
1IV	E-:maj	2B-_	_	1r	.	.	94.027	.	voice
.	.	8B-]	_	.	.	.	.	.	.
.	.	[8G	I've	.	.	.	.	.	.
.	.	4G]	_	.	.	.	.	.	.
=72	=72	=72	=72	=72	=72	=72	=72	=72	=72
1I	B-:maj	4F	stayed	1r	.	.	95.364	.	voice
.	.	8F	a-	.	.	.	.	.	.
.	.	[8F	-wake	.	.	.	.	.	.
.	.	8F]	_	.	.	.	.	.	.
.	.	8E-	and	.	.	.	.	.	.
.	.	4D	_	.	.	.	.	.	.
=73	=73	=73	=73	=73	=73	=73	=73	=73	=73
1I	B-:maj	4.F	cried	1r	.	C	96.701	.	voice
.	.	8r	.	.	.	.	.	.	.
.	.	2r	.	.	.	.	.	.	.
=74	=74	=74	=74	=74	=74	=74	=74	=74	=74
1IV	E-:maj	4G	Now	1r	.	.	98.038	newline	voice
.	.	4G	you'll	.	.	.	.	.	.
.	.	8G	ne-	.	.	.	.	.	.
.	.	[8A	-ver	.	.	.	.	.	.
.	.	8A]	_	.	.	.	.	.	.
.	.	[8B-	know	.	.	.	.	.	.
=75	=75	=75	=75	=75	=75	=75	=75	=75	=75
1IV	E-:maj	8B-]	_	1r	.	.	99.36	.	voice
.	.	[8B-	how	.	.	.	.	.	.
.	.	8B-]	_	.	.	.	.	.	.
.	.	[8A	much	.	.	.	.	.	.
.	.	8A]	_	.	.	.	.	.	.
.	.	[8G	you	.	.	.	.	.	.
.	.	8G]	_	.	.	.	.	.	.
.	.	[8F	hurt	.	.	.	.	.	.
=76	=76	=76	=76	=76	=76	=76	=76	=76	=76
1I	B-:maj	4F]	_	1r	.	.	100.681	.	voice
.	.	4F	my	.	.	.	.	.	.
.	.	4E-	foo-	.	.	.	.	.	.
.	.	4D	-lish	.	.	.	.	.	.
=77	=77	=77	=77	=77	=77	=77	=77	=77	=77
1V7	F:7	1C	pride...	1r	.	C	102.003	.	voice
=78	=78	=78	=78	=78	=78	=78	=78	=78	=78
1V7	F:7	1r	.	1r	.	.	103.325	.	voice
=79	=79	=79	=79	=79	=79	=79	=79	=79	=79
*>Letter>A	*>Letter>A	*>Letter>A	*>Letter>A	*>Letter>A	*>Letter>A	*>Letter>A	*>Letter>A	*>Letter>A	*>Letter>A
*>Label>Verse	*>Label>Verse	*>Label>Verse	*>Label>Verse	*>Label>Verse	*>Label>Verse	*>Label>Verse	*>Label>Verse	*>Label>Verse	*>Label>Verse
1I	B-:maj	4D	I	1r	.	.	104.647	newline	voice
.	.	8D	re-	.	.	.	.	.	.
.	.	[8D	-call	.	.	.	.	.	.
.	.	4D]	_	.	.	.	.	.	.
.	.	4C	your	.	.	.	.	.	.
=80	=80	=80	=80	=80	=80	=80	=80	=80	=80
1I	B-:maj	8C	kis-	1r	.	.	105.965	.	voice
.	.	[8BB-	-ses,	.	.	.	.	.	.
.	.	4BB-]	_	.	.	.	.	.	.
.	.	4r	.	.	.	.	.	.	.
.	.	8D	the	.	.	.	.	.	.
.	.	[8E-	times	.	.	.	.	.	.
=81	=81	=81	=81	=81	=81	=81	=81	=81	=81
1V7	F:7	4E-]	_	1r	.	.	107.284	.	voice
.	.	4E-	I	.	.	.	.	.	.
.	.	4E-	held	.	.	.	.	.	.
.	.	8D	you	.	.	.	.	.	.
.	.	[8C	tight,	.	.	C	.	.	.
=82	=82	=82	=82	=82	=82	=82	=82	=82	=82
1V7	F:7	4C]	_	1r	.	.	108.603	.	voice
.	.	4r	.	.	.	.	.	.	.
.	.	4r	.	.	.	.	.	.	.
.	.	4D	now	.	.	.	.	.	.
=83	=83	=83	=83	=83	=83	=83	=83	=83	=83
1V7	F:7	8E-	when	1r	.	.	109.921	newline	voice
.	.	[8E-	I	.	.	.	.	.	.
.	.	4E-]	_	.	.	.	.	.	.
.	.	4.E-	come	.	.	.	.	.	.
.	.	8D	to	.	.	.	.	.	.
=84	=84	=84	=84	=84	=84	=84	=84	=84	=84
1V7	F:7	8D	see	1r	.	.	111.262	.	voice
.	.	[8C	you,	.	.	.	.	.	.
.	.	4C]	_	.	.	.	.	.	.
.	.	4r	.	.	.	.	.	.	.
.	.	4E-	you're	.	.	.	.	.	.
=85	=85	=85	=85	=85	=85	=85	=85	=85	=85
1I	B-:maj	8F	sit-	1r	.	.	112.603	.	voice
.	.	[8F	-ting	.	.	.	.	.	.
.	.	8F]	_	.	.	.	.	.	.
.	.	[8F	in	.	.	.	.	.	.
.	.	4F]	_	.	.	.	.	.	.
.	.	8E-	the	.	.	.	.	.	.
.	.	[8D	light	.	.	C	.	.	.
=86	=86	=86	=86	=86	=86	=86	=86	=86	=86
1I	B-:maj	4D]	_	1r	.	.	113.944	.	voice
.	.	4r	.	.	.	.	.	.	.
.	.	2r	.	.	.	.	.	.	.
=87	=87	=87	=87	=87	=87	=87	=87	=87	=87
1IV	E-:maj	8G	Mis-	1r	.	.	115.285	newline	voice
.	.	[8G	-sing	.	.	.	.	.	.
.	.	8G]	_	.	.	.	.	.	.
.	.	[8G	all	.	.	.	.	.	.
.	.	4G]	_	.	.	.	.	.	.
.	.	8G	the	.	.	.	.	.	.
.	.	[8G	things	.	.	.	.	.	.
=88	=88	=88	=88	=88	=88	=88	=88	=88	=88
1IV	E-:maj	4G]	_	1r	.	.	116.604	.	voice
.	.	8G	that	.	.	.	.	.	.
.	.	[8F	we	.	.	.	.	.	.
.	.	4F]	_	.	.	.	.	.	.
.	.	4E-	dreamed	.	.	.	.	.	.
=89	=89	=89	=89	=89	=89	=89	=89	=89	=89
1I	B-:maj	1F	of...	1r	.	B	117.922	.	voice
=90	=90	=90	=90	=90	=90	=90	=90	=90	=90
1I	B-:maj	4r	.	1r	.	.	119.241	.	voice
.	.	4AA	You've	.	.	.	.	.	.
.	.	4BB-	got	.	.	.	.	.	.
.	.	8C	the	.	.	.	.	.	.
.	.	8D	ways	.	.	.	.	.	.
=91	=91	=91	=91	=91	=91	=91	=91	=91	=91
1I	B-:maj	[2.D	_	4r	.	.	120.559	newline	voice
.	.	.	.	4BB-	(you've	.	.	.	.
.	.	.	.	4AA	got	.	.	.	.
.	.	8D]	_	4GG	the	.	.	.	.
.	.	8r	.	.	.	.	.	.	.
=92	=92	=92	=92	=92	=92	=92	=92	=92	=92
1V7	F:7	4r	.	2FF	ways)	.	121.885	.	voice
.	.	8FF	of	.	.	.	.	.	.
.	.	8FF	a	.	.	.	.	.	.
.	.	8AA	wo-	2r	.	.	.	.	.
.	.	8AA	-man	.	.	.	.	.	.
.	.	4C	in	.	.	.	.	.	.
=93	=93	=93	=93	=93	=93	=93	=93	=93	=93
1I	B-:maj	2BB-	love.	2r	.	B	123.212	.	voice
.	.	2r	.	2BB-	(In	.	.	.	.
=94	=94	=94	=94	=94	=94	=94	=94	=94	=94
1I	B-:maj	4r	.	2BB-	love...)	.	124.538	.	voice
.	.	4AA	You've	.	.	.	.	.	.
.	.	4BB-	got	2r	.	.	.	.	.
.	.	8C	the	.	.	.	.	.	.
.	.	[8D	ways	.	.	.	.	.	.
=95	=95	=95	=95	=95	=95	=95	=95	=95	=95
1I	B-:maj	2.D_	_	4r	.	.	125.864	newline	voice
.	.	.	.	4BB-	(you've	.	.	.	.
.	.	.	.	4AA	got	.	.	.	.
.	.	8D]	_	4GG	the	.	.	.	.
.	.	8r	.	.	.	.	.	.	.
=96	=96	=96	=96	=96	=96	=96	=96	=96	=96
1V7	F:7	4r	.	2FF	ways)	.	127.177	.	voice
.	.	8FF	of	.	.	.	.	.	.
.	.	8FF	a	.	.	.	.	.	.
.	.	8AA	wo-	2r	.	.	.	.	.
.	.	8AA	-man	.	.	.	.	.	.
.	.	4C	in	.	.	.	.	.	.
=97	=97	=97	=97	=97	=97	=97	=97	=97	=97
1I	B-:maj	2BB-	love.	2r	.	B	128.491	.	voice
.	.	2r	.	2BB- 2F 2B- 2d	(In	.	.	.	.
=98	=98	=98	=98	=98	=98	=98	=98	=98	=98
1I	B-:maj	1r	.	1BB-; 1F 1B- 1d	love...)	.	129.804	.	voice
1r;	N	r;	.	1r	.	.	133.909	.	r
1r;	N	r;	.	1r	.	.	136.725	.	r
*-	*-	*-	*-	*-	*-	*-	*-	*-	*-
!!!BillboardChartDate: 1958/09/01
!!!BillboardPeak: 24
!!!BillboardWeeksOnChart: 11
!!!COC: Johnny Cash
!!!ENC: Nathaniel Condit-Schultz
!!!EST: Awating manual error checking and editing.
!!!OTL: The Ways Of A Woman In Love
!!!RDF**harte: Chris Harte's syntax, used by MIREX
!!!RDF**harmony: **recip + pitch class of root + harmonic quality
!!!RDF**leadinstrument: original McGill primary instrumentation annotation
!!!RDF**phrase: newline = linebreak in original McGill transcription
!!!RDF**timestamp: McGill audio timestamp in seconds
!!!RDT: 2017/01/12/
!!!SampleActualRank: 58
!!!SampleID#: 0787
!!!SampleTargetRank: 58
!!!MBID: a770e29a-63cc-45fe-a1b6-e5201fed31a8
